packages/kaspersky-hexa-ui-icons/src/iconsSVGs/24/Map.svg

<svg width="24" height="24" viewBox="0 0 24 24" fill="none" xmlns="http://www.w3.org/2000/svg">
<path fill-rule="evenodd" clip-rule="evenodd" d="M9 3C9.11883 3 9.23282 3.02073 9.33855 3.05876L14.9687 4.93548L19.6286 3.07153C19.9367 2.94829 20.2859 2.98591 20.5606 3.17194C20.8354 3.35797 21 3.66818 21 4V17.5C21 17.8788 20.786 18.225 20.4472 18.3944L15.4651 20.8855C15.3318 20.9557 15.1806 20.9966 15.0202 20.9998C15.0072 21.0001 14.9942 21.0001 14.9812 20.9998C14.972 20.9997 14.9629 20.9994 14.9538 20.9989C14.8265 20.9931 14.7054 20.9636 14.5949 20.9145L9.03786 18.5991L4.44721 20.8944C4.13723 21.0494 3.76909 21.0329 3.47427 20.8507C3.17945 20.6684 3 20.3466 3 20V6C3 5.5911 3.24895 5.22339 3.62861 5.07153L8.60738 3.08002C8.72792 3.02851 8.86063 3 9 3ZM16 18.382L19 16.882V5.47704L16 6.67704V18.382ZM14 6.72076V18.5L10 16.8333V5.38743L14 6.72076ZM5 6.67704L8 5.47704V16.882L5 18.382V6.67704Z" fill="black"/>
</svg>

<svg xmlns="http://www.w3.org/2000/svg" width="24" height="24" fill="none" viewBox="0 0 24 24"><path fill="#000" fill-rule="evenodd" d="M9 3a1 1 0 0 1 .3385.0588l5.6302 1.8767 4.6599-1.864A1 1 0 0 1 21 4v13.5a1 1 0 0 1-.5528.8944l-4.9821 2.4911a.995.995 0 0 1-.5113.1134.99.99 0 0 1-.3589-.0844l-5.557-2.3154-4.5907 2.2953A1 1 0 0 1 3 20V6a1 1 0 0 1 .6286-.9285L8.6074 3.08A1 1 0 0 1 9 3m7 15.382 3-1.5V5.477l-3 1.2zM14 6.7208V18.5l-4-1.6667V5.3874zM5 6.677l3-1.2v11.405l-3 1.5z"/></svg>
